packages/foundations/assets/icons/functional/images/human/shower_men_14.svg

<svg width="14" height="14" viewBox="0 0 14 14" fill="none" xmlns="http://www.w3.org/2000/svg">
<g clip-path="url(#clip0_185_1185)">
<path fill-rule="evenodd" clip-rule="evenodd" d="M4.49175 4.72598C5.55462 4.72598 6.40162 5.57294 6.40158 6.6358C6.40843 7.69833 5.55425 8.56606 4.49175 8.57594C3.42332 8.56854 2.55901 7.70423 2.55162 6.6358C2.56154 5.57332 3.42925 4.71917 4.49175 4.72598ZM9.7834 7.00435C10.0658 6.93911 10.3477 7.11532 10.413 7.39782C10.4783 7.68021 10.3023 7.96212 10.0198 8.02724C9.73739 8.09236 9.45554 7.91627 9.39023 7.63376C9.32492 7.35126 9.50095 7.06947 9.7834 7.00435ZM11.7374 6.72205C11.9879 6.57645 12.3093 6.66158 12.4553 6.91221C12.6011 7.16283 12.5163 7.4841 12.2659 7.62983C12.0153 7.77543 11.694 7.6903 11.5481 7.43967C11.4021 7.18893 11.4868 6.86766 11.7374 6.72205ZM7.34781 6.91058C7.49341 6.66016 7.81467 6.57533 8.06528 6.72127C8.31602 6.8672 8.40115 7.18856 8.25543 7.43898C8.10971 7.68952 7.78845 7.77435 7.53784 7.62841C7.28722 7.48247 7.20209 7.16112 7.34781 6.91058ZM9.78343 5.38823C10.0659 5.32311 10.3478 5.49931 10.413 5.7817C10.4784 6.06421 10.3023 6.346 10.0199 6.41112C9.73741 6.47636 9.45554 6.30015 9.39023 6.01764C9.32491 5.73526 9.50096 5.45347 9.78343 5.38823ZM7.87273 5.33679C8.01834 5.08626 8.33973 5.00143 8.59035 5.14736C8.84097 5.2933 8.92611 5.61464 8.7805 5.86518C8.63478 6.11571 8.31351 6.20042 8.06288 6.05448C7.81226 5.90867 7.72712 5.58721 7.87273 5.33679ZM11.2124 5.14714C11.4629 5.00141 11.7842 5.08655 11.9302 5.33717C12.0761 5.5878 11.9913 5.90907 11.7409 6.0548C11.4903 6.20041 11.169 6.11539 11.023 5.86465C10.8771 5.61402 10.9619 5.29275 11.2124 5.14714ZM9.90162 1.40094C10.2606 1.40094 10.6015 1.70096 10.6015 2.10094V3.02774L10.8912 3.06332L11.5781 3.15834C11.9606 3.2144 12.2253 3.56993 12.1692 3.95245C12.1132 4.33496 11.7576 4.5996 11.3751 4.54354L10.489 4.42457C10.2909 4.39215 10.0944 4.37594 9.89933 4.37594C9.70428 4.37594 9.50924 4.39215 9.31421 4.42457L8.42813 4.54354C8.04561 4.5996 7.69008 4.33496 7.63402 3.95245C7.57796 3.56993 7.8426 3.2144 8.22511 3.15834L8.91202 3.06332L9.20152 3.02914L9.20162 2.10094C9.20162 1.71434 9.51502 1.40094 9.90162 1.40094ZM6.41955 9.80085C7.27662 9.80085 7.62321 10.6303 7.40144 11.2232C7.28787 11.5268 7.17281 11.8303 7.05623 12.1337C6.91916 12.4952 6.51495 12.6772 6.15342 12.5401C5.81771 12.4128 5.61191 12.0158 5.747 11.6373C5.80053 11.4917 5.8554 11.3463 5.91162 11.2009H3.03672L3.20712 11.6551C3.3332 11.9913 3.18984 12.4093 2.79745 12.5564C2.46129 12.6825 2.03924 12.5234 1.89611 12.1468C1.77871 11.8379 1.66282 11.5288 1.54842 11.2197C1.24295 10.4052 1.92919 9.80158 2.53164 9.80085C3.82744 9.79929 5.12341 9.79929 6.41955 9.80085Z" fill="#1A1C1F"/>
</g>
<defs>
<clipPath id="clip0_185_1185">
<rect width="14" height="14" fill="white"/>
</clipPath>
</defs>
</svg>

<svg xmlns="http://www.w3.org/2000/svg" width="14" height="14" fill="none"><g clip-path="url(#a)"><path fill="#1A1C1F" fill-rule="evenodd" d="M4.492 4.726a1.9 1.9 0 0 1 1.91 1.91 1.93 1.93 0 0 1-1.91 1.94 1.954 1.954 0 0 1-1.94-1.94 1.93 1.93 0 0 1 1.94-1.91m5.291 2.278a.525.525 0 1 1 .236 1.024.525.525 0 0 1-.236-1.024m1.954-.282a.525.525 0 1 1 .528.91.525.525 0 0 1-.528-.91m-4.39.189a.524.524 0 1 1 .907.527.524.524 0 0 1-.906-.527m2.436-1.523a.525.525 0 1 1 .236 1.024.525.525 0 0 1-.236-1.024m-1.91-.051a.525.525 0 1 1 .907.527.525.525 0 0 1-.907-.527m3.34-.19a.525.525 0 1 1 .527.908.525.525 0 0 1-.528-.908M9.901 1.401c.359 0 .7.3.7.7v.927l.29.035.686.095a.7.7 0 1 1-.203 1.386l-.886-.12a3.7 3.7 0 0 0-1.175 0l-.886.12a.7.7 0 1 1-.203-1.386l.687-.095.29-.034v-.928a.7.7 0 0 1 .7-.7m-3.482 8.4c.857 0 1.203.83.981 1.422q-.17.456-.345.91a.7.7 0 0 1-.903.407.713.713 0 0 1-.406-.903q.08-.217.165-.436H3.037l.17.454a.697.697 0 0 1-.41.902.71.71 0 0 1-.9-.41q-.177-.464-.349-.927c-.305-.815.381-1.418.984-1.42z" clip-rule="evenodd"/></g><defs><clipPath id="a"><path fill="#fff" d="M0 0h14v14H0z"/></clipPath></defs></svg>
